X:34
T:King Pipping Polka. TLY.034
M:2/4
L:1/16
Q:1/4=120
S:Wm.Tildesley,Swinton,Lancs.1860s.
R:.Polka
O:England.
A:Lancashire.
N:Wrong key sig presumably. Compare other versions. CGP.
H:1860.
Z:vmp.Taz Tarry.
K:C
â€œ_try in other keysâ€A2Ad â€œ^Pâ€f4|g2gB f4|f2e2 efe2|\
e2d2 ded2|A2Ad f4|g2gB f4|!
f2e2 efe2|d2d2d2::aaa2 AAA2|B2A2 GBA2|â€^Pâ€f2e2 efe2|e2d2 ded2|!
aaa2 AAA2|B2A2 ABA2|f2e2 edec|d2d2d2::â€^Fâ€d2dg B2de|d2c2 c4|!
.D.E.F.G .A.B.c.d|.e.f.g.a b4|d2dg B2de|d2c2 c4|\
.F.G.A.B .c.d.e.f|g2g2g2z2:|!
|:â€^Fâ€d2f2 A2(3fed|c2b2b2 A2|e2g2 A2(3gfe|d2d2d2 z2|d2f2 A2(3fed|\
c2b2b2A2|!
e2g2 A2(3gfe|d2d2d2 z2::d2(dg) B2(de)|d2c2 c4|.D.E.F.G .A.B.c.d|!
.e.f.g.a b4|d2dg B2de|d2c2 c4|.F.G.A.B .c.d.e.f|g2g2g2 z2:|

